!!!OTL: Schaefers Klage.
!!!COM: J. Fr. Reichardt
!!!ARE: Europa, Mitteleuropa, Deutschland
!!!SCT: F0064A
!!!TXL: @@DE
!!!YEM: Copyright 1995, estate of Helmut Schaffrath.
**kern	**text
*ICvox	*
*clefG2	*
*M4/4	*
*met(c)	*
*k[b-e-]	*
*g:	*
!LO:TX:a:t=Langſam und leiſe.	!
{8d	1._Da
=1	=1
4g	dro-
8g	-ben
8g	auf
(4b-	je-
8a\)	.
8g	-nem
=2	=2
(4.dd	Ber-
8a\)	.
4a	-ge,
8r}	.
{8a	da
=3	=3
4.b-	ſteh'
8b-	ich
4.cc	tau-
8cc	-ſend
=4	=4
2.dd	Mal,
8r}	.
{8dd	an
=5	=5
4.dd	mei-
8g	-nem
4g	Sta-
8a	-be
8b/	ge-
=6	=6
8ddqq	.
4cc	-bo-
4cc	-gen
4r	.
8r}	.
{8cc	und
=7	=7
4cc	ſchau-
8d	-e
8d	her-
4d	-ab
8e	in
8f#	das
=8	=8
2.g	Thal.
8r}	.
{8d	Dann
=9	=9
!LO:TX:a:t=Ʒur letʒten Strophe.	!
4dd	ü-
8g	-ber,
8g	ihr
4ffn	Scha-
8ee-	-ſe,
8dd	vor-
=10	=10
8ffqq	.
4ee-	-ü-
4ee-	-ber,
4r	.
8r}	.
{8ee-	dem
=11	=11
8ee-qq	.
4dd	Schä-
8dd	-fer
8dd	iſt
4.dd	gar
8f#	ʒu
=12	=12
(4g	weh,
(2gg)	.
8ffn)}	.
{8ee-	dem
=13	=13
8ee-qq	.
4dd	Schä-
8dd	-fer
8dd	iſt
4.dd	gar
8f#	ʒu
=14	=14
2.g	weh.
8r}	.
==	==
!!!AGN: Liebe, Schmerz, Schaefer - Lied
!! Strophenvariante zu F0064
!!!ONB: ESAC (Essen Associative Code) Database: FINK
!!!AMT: simple quadruple
!!!AIN: vox
!!!EED: Helmut Schaffrath
!!!EEV: 1.0
!!!source: Musikalischer Hausschatz der Deutschen. Eine Sammlung von über 1000 Liedern und Gesängen mit Singstimmen und Klavierbegleitung. Leipzig, Litterarisches Verlags-Haus.
!!!page: 38
!!Text: J. W. Goethe
!!!GTL: Volkslieder
!!!URL-scan: https://www.digitale-sammlungen.de/en/view/bsb11144622?page=46,47
!!!ENC: Anna Maria Matuszewska
!!!EEV: 2024/25/07
*-	*-
